public/piece/icpieces/wP.svg

<svg xmlns="http://www.w3.org/2000/svg" width="368" height="368"><path d="M151 211c-5.462 22.17-11.492 41.384-25.475 60A182.506 182.506 0 0 1 104 294.91c-4.799 4.469-10.938 8.1-14 14.094-4.194 8.207-3 18.097-3 26.996h194c0-8.899 1.194-18.789-2.999-26.996-3.063-5.994-9.202-9.625-14.001-14.094A182.506 182.506 0 0 1 242.475 271c-13.983-18.616-20.013-37.83-25.475-60 3.662-.289 7.388-.768 11-1.461 2.698-.517 5.436-1.256 7.999-2.253 1.328-.516 2.779-1.07 3.892-1.988 11.101-9.159-4.555-20.906-10.889-27.313-1.724-1.743-3.84-3.592-4.649-5.985-1.822-5.388 2.077-13.098 1.361-19-2.653-21.876-19.393-38-41.714-38-22.321 0-39.061 16.124-41.714 38-.716 5.902 3.183 13.612 1.361 19-.809 2.393-2.925 4.242-4.649 5.985-6.334 6.407-21.99 18.154-10.889 27.313 1.113.918 2.564 1.472 3.892 1.988 2.563.997 5.301 1.736 7.999 2.253 3.612.693 7.338 1.172 11 1.461z" style="fill:#000;stroke:none"/><path d="M135 197h98c-3.873-5.497-9.016-10.319-14-14.83-2.329-2.109-6.51-4.498-7.335-7.749-.805-3.174 2.617-8.225 3.32-11.421 1.665-7.57.356-15.17-3.309-22-12.735-23.731-48.867-20.068-57.575 5-2.08 5.988-2.358 11.864-.862 18 .768 3.149 4.349 8.244 2.767 11.385-1.366 2.713-4.83 4.68-7.006 6.705-4.94 4.597-10.112 9.39-14 14.91m26 10c-.589 28.55-15.884 56.64-33.754 78C116.47 297.881 97.05 307.855 97 326h174c-.05-18.145-19.47-28.119-30.246-41-17.87-21.36-33.165-49.45-33.754-78h-46z" style="fill:#fff;stroke:none"/></svg>

<?xml version="1.0" standalone="yes"?>
<svg xmlns="http://www.w3.org/2000/svg" width="368" height="368">
<path style="fill:#000000; stroke:none;" d="M151 211C145.538 233.17 139.508 252.384 125.525 271C119.08 279.579 111.852 287.599 104 294.91C99.2012 299.379 93.0617 303.01 89.9992 309.004C85.8063 317.211 87 327.101 87 336L281 336C281 327.101 282.194 317.211 278.001 309.004C274.938 303.01 268.799 299.379 264 294.91C256.148 287.599 248.92 279.579 242.475 271C228.492 252.384 222.462 233.17 217 211C220.662 210.711 224.388 210.232 228 209.539C230.698 209.022 233.436 208.283 235.999 207.286C237.327 206.77 238.778 206.216 239.891 205.298C250.992 196.139 235.336 184.392 229.002 177.985C227.278 176.242 225.162 174.393 224.353 172C222.531 166.612 226.43 158.902 225.714 153C223.061 131.124 206.321 115 184 115C161.679 115 144.939 131.124 142.286 153C141.57 158.902 145.469 166.612 143.647 172C142.838 174.393 140.722 176.242 138.998 177.985C132.664 184.392 117.008 196.139 128.109 205.298C129.222 206.216 130.673 206.77 132.001 207.286C134.564 208.283 137.302 209.022 140 209.539C143.612 210.232 147.338 210.711 151 211z"/>
<path style="fill:#ffffff; stroke:none;" d="M135 197L233 197C229.127 191.503 223.984 186.681 219 182.17C216.671 180.061 212.49 177.672 211.665 174.421C210.86 171.247 214.282 166.196 214.985 163C216.65 155.43 215.341 147.83 211.676 141C198.941 117.269 162.809 120.932 154.101 146C152.021 151.988 151.743 157.864 153.239 164C154.007 167.149 157.588 172.244 156.006 175.385C154.64 178.098 151.176 180.065 149 182.09C144.06 186.687 138.888 191.48 135 197M161 207C160.411 235.55 145.116 263.64 127.246 285C116.47 297.881 97.0501 307.855 97 326L271 326C270.95 307.855 251.53 297.881 240.754 285C222.884 263.64 207.589 235.55 207 207L161 207z"/>
</svg>
